assets/icons/24px/stroke/upload-to-cloud-24px.svg

<svg width="24" height="24" viewBox="0 0 24 24" fill="none" xmlns="http://www.w3.org/2000/svg">
<path fill-rule="evenodd" clip-rule="evenodd" d="M8.11573 3.84829C9.28195 2.77254 10.9826 2 12.9 2C14.8049 2 16.6575 2.76638 17.8766 4.10423C18.901 5.22833 19.4504 6.73182 19.2165 8.41468C20.847 8.94735 22 10.522 22 12.3333C22 13.8128 21.2371 15.1225 20.076 15.848C19.6077 16.1407 18.9907 15.9983 18.6981 15.5299C18.4054 15.0616 18.5478 14.4446 19.0162 14.152C19.5975 13.7887 20 13.1172 20 12.3333C20 11.1328 19.0706 10.2222 18 10.2222C17.5609 10.2222 17.1543 10.3706 16.8211 10.628C16.7089 10.7146 16.6051 10.8137 16.5115 10.9236C16.1536 11.3442 15.5224 11.395 15.1019 11.037C14.6813 10.679 14.6305 10.0479 14.9885 9.62734C15.1711 9.41273 15.3756 9.2174 15.5986 9.04511C16.065 8.68496 16.6128 8.4258 17.2091 8.30273C17.4203 7.14838 17.063 6.1807 16.3984 5.45132C15.5925 4.56695 14.2951 4 12.9 4C11.5174 4 10.2931 4.5608 9.47177 5.31837C8.83577 5.90505 8.53162 6.51166 8.4642 6.99472C9.39018 7.36377 10.1719 8.0216 10.7081 8.85178C10.8627 9.09119 10.9973 9.34537 11.1095 9.61174C11.3239 10.1207 11.0852 10.7071 10.5762 10.9215C10.0673 11.136 9.48085 10.8972 9.26642 10.3883C9.19961 10.2297 9.11961 10.0787 9.02797 9.9368L9.86802 9.39429L9.02797 9.9368C8.52565 9.15898 7.68577 8.66667 6.75 8.66667C5.26518 8.66667 4 9.92548 4 11.5556C4 12.6167 4.54233 13.5317 5.33458 14.0329C5.80133 14.3281 5.94036 14.9458 5.64512 15.4126C5.34987 15.8793 4.73216 16.0183 4.26542 15.7231C2.8989 14.8587 2 13.3086 2 11.5556C2 8.97881 3.95568 6.81518 6.48657 6.67399C6.6485 5.61052 7.29347 4.60677 8.11573 3.84829Z" fill="white"/>
<path fill-rule="evenodd" clip-rule="evenodd" d="M15.7071 18.2071C16.0976 17.8166 16.0976 17.1834 15.7071 16.7929L12.7071 13.7929C12.3166 13.4024 11.6834 13.4024 11.2929 13.7929L8.29289 16.7929C7.90237 17.1834 7.90237 17.8166 8.29289 18.2071C8.68342 18.5976 9.31658 18.5976 9.70711 18.2071L11 16.9142L11 22C11 22.5523 11.4477 23 12 23C12.5523 23 13 22.5523 13 22L13 16.9142L14.2929 18.2071C14.6834 18.5976 15.3166 18.5976 15.7071 18.2071Z" fill="white"/>
</svg>

<svg width="24" height="24" fill="none" xmlns="http://www.w3.org/2000/svg"><path fill-rule="evenodd" clip-rule="evenodd" d="M8.116 3.848A7.107 7.107 0 0 1 12.9 2c1.905 0 3.757.766 4.977 2.104 1.024 1.124 1.573 2.628 1.34 4.31 1.63.533 2.783 2.108 2.783 3.92 0 1.479-.763 2.789-1.924 3.514a1 1 0 1 1-1.06-1.696A2.135 2.135 0 0 0 20 12.333c0-1.2-.93-2.11-2-2.11-.44 0-.846.148-1.179.405a2.062 2.062 0 0 0-.31.296 1 1 0 1 1-1.522-1.297c.182-.214.387-.41.61-.582a3.937 3.937 0 0 1 1.61-.742c.211-1.155-.146-2.122-.81-2.852C15.591 4.567 14.294 4 12.9 4c-1.383 0-2.607.56-3.428 1.318-.636.587-.94 1.194-1.008 1.677a4.797 4.797 0 0 1 2.244 1.857c.155.24.29.493.402.76a1 1 0 1 1-1.844.776 2.926 2.926 0 0 0-.238-.451l.84-.543-.84.543c-.502-.778-1.342-1.27-2.278-1.27C5.265 8.667 4 9.925 4 11.556c0 1.06.542 1.976 1.335 2.477a1 1 0 1 1-1.07 1.69A4.918 4.918 0 0 1 2 11.556c0-2.577 1.956-4.74 4.487-4.882.162-1.063.806-2.067 1.629-2.826z" fill="#fff"/><path fill-rule="evenodd" clip-rule="evenodd" d="M15.707 18.207a1 1 0 0 0 0-1.414l-3-3a1 1 0 0 0-1.414 0l-3 3a1 1 0 1 0 1.414 1.414L11 16.914V22a1 1 0 1 0 2 0v-5.086l1.293 1.293a1 1 0 0 0 1.414 0z" fill="#fff"/></svg>
